storage/app/icons/phosphoricons/regular/hand-soap.svg

<svg xmlns="http://www.w3.org/2000/svg" fill="currentColor" viewBox="0 0 256 256"><path d="M184 96.8V88a32 32 0 0 0-32-32h-16V32h32a8 8 0 0 1 8 8 8 8 0 0 0 16 0 24 24 0 0 0-24-24h-64a8 8 0 0 0 0 16h16v24h-16a32 32 0 0 0-32 32v8.8A40.07 40.07 0 0 0 40 136v80a16 16 0 0 0 16 16h144a16 16 0 0 0 16-16v-80a40.07 40.07 0 0 0-32-39.2M104 72h48a16 16 0 0 1 16 16v8H88v-8a16 16 0 0 1 16-16m96 144H56v-80a24 24 0 0 1 24-24h96a24 24 0 0 1 24 24z"/></svg>

<svg xmlns="http://www.w3.org/2000/svg" viewBox="0 0 256 256" fill="currentColor"><path d="M184,96.8V88a32,32,0,0,0-32-32H136V32h32a8,8,0,0,1,8,8,8,8,0,0,0,16,0,24,24,0,0,0-24-24H104a8,8,0,0,0,0,16h16V56H104A32,32,0,0,0,72,88v8.8A40.07,40.07,0,0,0,40,136v80a16,16,0,0,0,16,16H200a16,16,0,0,0,16-16V136A40.07,40.07,0,0,0,184,96.8ZM104,72h48a16,16,0,0,1,16,16v8H88V88A16,16,0,0,1,104,72Zm96,144H56V136a24,24,0,0,1,24-24h96a24,24,0,0,1,24,24v80Z"/></svg>
